src/assets/img/components/advantagesTriangle/car.svg

<svg width="66" height="33" viewBox="0 0 66 33" fill="none" xmlns="http://www.w3.org/2000/svg">
<path fill-rule="evenodd" clip-rule="evenodd" d="M6.17393 25H5C3.34315 25 2 23.6569 2 22V17.5H4C4.55228 17.5 5 17.0523 5 16.5C5 15.9477 4.55228 15.5 4 15.5H2V15.0139C2 14.4216 2.17531 13.8426 2.50385 13.3498L9.17977 3.3359C9.73617 2.5013 10.6729 2 11.6759 2H28V10H24C23.4477 10 23 10.4477 23 11C23 11.5523 23.4477 12 24 12L50 12C50.1403 12 50.2739 11.9711 50.3951 11.9189C50.9229 12.1221 51.4769 12.262 52.0458 12.3328L61.3704 13.493C62.5367 13.6381 63.4772 14.4401 63.8394 15.5H61.5C60.9477 15.5 60.5 15.9477 60.5 16.5C60.5 17.0523 60.9477 17.5 61.5 17.5H64V22C64 23.6569 62.6569 25 61 25H59.8261C59.1489 22.1333 56.5736 20 53.5 20C50.4264 20 47.8511 22.1333 47.1739 25H18.8261C18.1489 22.1333 15.5736 20 12.5 20C9.42642 20 6.8511 22.1333 6.17393 25ZM30 10L47.6402 10L41.0228 2.94728C40.4557 2.34287 39.6639 2 38.8351 2H30V10ZM61 27H59.9811C59.7257 30.3562 56.9216 33 53.5 33C50.0784 33 47.2743 30.3562 47.0189 27H18.9811C18.7257 30.3562 15.9216 33 12.5 33C9.07838 33 6.27426 30.3562 6.01894 27H5C2.23858 27 0 24.7614 0 22V15.0139C0 14.0268 0.29219 13.0617 0.839749 12.2404L7.51567 2.2265C8.443 0.835506 10.0042 0 11.6759 0H38.8351C40.2164 0 41.5362 0.571453 42.4813 1.5788L49.2639 8.80753C50.0627 9.65891 51.1342 10.2039 52.2928 10.3481L61.6174 11.5083C64.1208 11.8197 66 13.9473 66 16.47V22C66 24.7614 63.7614 27 61 27ZM12.5 31C14.9853 31 17 28.9853 17 26.5C17 24.0147 14.9853 22 12.5 22C10.0147 22 8 24.0147 8 26.5C8 28.9853 10.0147 31 12.5 31ZM53.5 31C55.9853 31 58 28.9853 58 26.5C58 24.0147 55.9853 22 53.5 22C51.0147 22 49 24.0147 49 26.5C49 28.9853 51.0147 31 53.5 31ZM31 15.5C30.4477 15.5 30 15.9477 30 16.5C30 17.0523 30.4477 17.5 31 17.5H34C34.5523 17.5 35 17.0523 35 16.5C35 15.9477 34.5523 15.5 34 15.5H31Z" fill="#41456B"/>
</svg>

<svg width="66" height="33" fill="none" xmlns="http://www.w3.org/2000/svg"><path fill-rule="evenodd" clip-rule="evenodd" d="M6.174 25H5a3 3 0 0 1-3-3v-4.5h2a1 1 0 1 0 0-2H2v-.486a3 3 0 0 1 .504-1.664L9.18 3.336A3 3 0 0 1 11.676 2H28v8h-4a1 1 0 1 0 0 2h26a1 1 0 0 0 .395-.081 7 7 0 0 0 1.65.414l9.325 1.16a3 3 0 0 1 2.47 2.007H61.5a1 1 0 1 0 0 2H64V22a3 3 0 0 1-3 3h-1.174a6.503 6.503 0 0 0-12.652 0H18.826a6.503 6.503 0 0 0-12.652 0ZM30 10h17.64l-6.617-7.053A3 3 0 0 0 38.835 2H30v8Zm31 17h-1.019a6.5 6.5 0 0 1-12.962 0H18.98a6.5 6.5 0 0 1-12.96 0H5a5 5 0 0 1-5-5v-6.986a5 5 0 0 1 .84-2.774L7.516 2.226A5 5 0 0 1 11.676 0h27.16a5 5 0 0 1 3.645 1.579l6.783 7.229a5 5 0 0 0 3.029 1.54l9.324 1.16A5 5 0 0 1 66 16.47V22a5 5 0 0 1-5 5Zm-48.5 4a4.5 4.5 0 1 0 0-9 4.5 4.5 0 0 0 0 9Zm41 0a4.5 4.5 0 1 0 0-9 4.5 4.5 0 0 0 0 9ZM31 15.5a1 1 0 1 0 0 2h3a1 1 0 1 0 0-2h-3Z" fill="#41456B"/></svg>
